src/lib/packages/icons/src/assets/line/check-square.svg

<svg width="24" height="24" viewBox="0 0 24 24" fill="none" xmlns="http://www.w3.org/2000/svg">
<path d="M16.03 9.13599C16.323 9.42899 16.323 9.90402 16.03 10.197L11.363 14.864C11.217 15.01 11.025 15.084 10.833 15.084C10.641 15.084 10.449 15.011 10.303 14.864L7.96997 12.531C7.67697 12.238 7.67697 11.763 7.96997 11.47C8.26297 11.177 8.73801 11.177 9.03101 11.47L10.834 13.273L14.97 9.13702C15.263 8.84402 15.737 8.84399 16.03 9.13599ZM21.75 6.375V17.625C21.75 20.285 20.285 21.75 17.625 21.75H6.375C3.715 21.75 2.25 20.285 2.25 17.625V6.375C2.25 3.715 3.715 2.25 6.375 2.25H17.625C20.285 2.25 21.75 3.715 21.75 6.375ZM20.25 6.375C20.25 4.535 19.465 3.75 17.625 3.75H6.375C4.535 3.75 3.75 4.535 3.75 6.375V17.625C3.75 19.465 4.535 20.25 6.375 20.25H17.625C19.465 20.25 20.25 19.465 20.25 17.625V6.375Z" fill="currentColor"/>
</svg>

<svg xmlns="http://www.w3.org/2000/svg" width="24" height="24" fill="none"><path fill="currentColor" d="M16.03 9.136a.75.75 0 0 1 0 1.061l-4.667 4.667a.748.748 0 0 1-1.06 0L7.97 12.531a.75.75 0 1 1 1.061-1.061l1.803 1.803 4.136-4.136a.75.75 0 0 1 1.06-.001Zm5.72-2.761v11.25c0 2.66-1.465 4.125-4.125 4.125H6.375c-2.66 0-4.125-1.465-4.125-4.125V6.375c0-2.66 1.465-4.125 4.125-4.125h11.25c2.66 0 4.125 1.465 4.125 4.125Zm-1.5 0c0-1.84-.785-2.625-2.625-2.625H6.375c-1.84 0-2.625.785-2.625 2.625v11.25c0 1.84.785 2.625 2.625 2.625h11.25c1.84 0 2.625-.785 2.625-2.625V6.375Z"/></svg>
